X: 41528
T: Uncle Hugh's
R: reel
M: 4/4
K: Dmajor
FAAd BGGB|AFFA BE E2|FAAd BGGB|AFDF E2 D2|
FAAd BGGB|AFFA BE E2|FAAd BGGB|AFDF E2 DE||
FAAB d2 dA|B2 BA d2 dA|FAAB d3 A|(3Bcd AF EFDE|
FAAB d3 A|B2 BA d2 eg|(3fga ec dcBA|(3Bcd AF E2 D2||

